images_sukapura_svg/cmd/sc_saveasremote.svg

<svg viewBox="0 0 16 16" xmlns="http://www.w3.org/2000/svg" xmlns:xlink="http://www.w3.org/1999/xlink"><filter id="a" color-interpolation-filters="sRGB" height="1.071" width="2.278" x="-.639" y="-.0355"><feGaussianBlur stdDeviation=".26625"/></filter><linearGradient id="b" gradientUnits="userSpaceOnUse" x1="9" x2="9" y1="15" y2="10"><stop offset="0" stop-color="#dadada"/><stop offset=".5" stop-color="#fff"/><stop offset="1" stop-color="#fff"/></linearGradient><linearGradient id="c" gradientUnits="userSpaceOnUse" x1="15" x2="15" y1="18" y2="1"><stop offset="0" stop-color="#4f4f4f"/><stop offset=".88235295" stop-color="#4f4f4f" stop-opacity=".498039"/><stop offset="1" stop-color="#b7b7b7"/></linearGradient>




     /&amp;amp;amp;gt;
 <path d="m1 0c-.554 0-1 .446-1 1v10l3.1992188 3h11.8007812c.554 0 1-.446 1-1v-12c0-.554-.446-1-1-1z" fill="#3e3e3e"/><g fill="#fff"><path d="m2.280908 1h11.438184c.155623 0 .280908.125285.280908.280908v5.438184c0 .155623-.125285.280908-.280908.280908h-11.438184c-.155623 0-.280908-.125285-.280908-.280908v-5.438184c0-.155623.125285-.280908.280908-.280908z"/><path d="m4.5 9c-.554 0-1 .446-1 1v2c0 .554.4469243 1.031989 1 1h1v-3h2v3h4.5c.554 0 1-.446 1-1v-2c0-.554-.446-1-1-1z" fill="url(#b)"/></g><path d="m5.5 10h2v1h-2z"/><path d="m14 1h1v15.428571h-1z" fill="url(#c)" filter="url(#a)" transform="matrix(1 0 0 .77777778 .5 .222222)"/><path d="m14 1h1.237288v10.928571h-1.237288z" fill="url(#c)" filter="url(#a)" transform="matrix(1 0 0 .77777778 -13.237288 .222222)"/><path d="m4 5h8v1h-8z" fill="#bababa"/><path d="m4 3h8v1h-8z" fill="#bababa"/><path d="m4 1h8v1h-8z" fill="#0a84ff"/><g transform="translate(-2.563243 -7)"><path d="m2.563243 22h16.000002v1h-16.000002z" fill="#b3b3b3"/><path d="m9.5632427 20v2h-2v1h6.0000003v-1h-2v-2z" fill="#808080"/></g></svg>

<?xml version="1.0" encoding="UTF-8" standalone="no"?>
<svg
   xmlns:dc="http://purl.org/dc/elements/1.1/"
   xmlns:cc="http://creativecommons.org/ns#"
   xmlns:rdf="http://www.w3.org/1999/02/22-rdf-syntax-ns#"
   xmlns:svg="http://www.w3.org/2000/svg"
   xmlns="http://www.w3.org/2000/svg"
   xmlns:sodipodi="http://sodipodi.sourceforge.net/DTD/sodipodi-0.dtd"
   xmlns:inkscape="http://www.inkscape.org/namespaces/inkscape"
   viewBox="0 0 16 16"
   version="1.1"
   id="svg1490"
   sodipodi:docname="sc_saveasremote.svg"
   inkscape:version="0.92.3 (2405546, 2018-03-11)"><metadata
   id="metadata1496">
  <rdf:RDF>
    <cc:Work
       rdf:about="">
      <dc:format>image/svg+xml</dc:format>
      <dc:type
         rdf:resource="http://purl.org/dc/dcmitype/StillImage" />
      <dc:title></dc:title>
    </cc:Work>
  </rdf:RDF>
</metadata>
<defs
   id="defs1494" />
<sodipodi:namedview
   pagecolor="#ffffff"
   bordercolor="#666666"
   borderopacity="1"
   objecttolerance="10"
   gridtolerance="10"
   guidetolerance="10"
   inkscape:pageopacity="0"
   inkscape:pageshadow="2"
   inkscape:window-width="1366"
   inkscape:window-height="685"
   id="namedview1492"
   showgrid="true"
   inkscape:snap-smooth-nodes="true"
   inkscape:zoom="20.85965"
   inkscape:cx="7.7925528"
   inkscape:cy="5.9764228"
   inkscape:window-x="0"
   inkscape:window-y="0"
   inkscape:window-maximized="1"
   inkscape:current-layer="svg1490">
  <inkscape:grid
     type="xygrid"
     id="grid2044" />
</sodipodi:namedview>
<filter
   id="a"
   color-interpolation-filters="sRGB"
   height="1.071"
   width="2.278"
   x="-.639"
   y="-.0355">
  <feGaussianBlur
     stdDeviation=".26625"
     id="feGaussianBlur1453" />
</filter>
<linearGradient
   id="b"
   gradientUnits="userSpaceOnUse"
   x1="9"
   x2="9"
   y1="15"
   y2="10">
  <stop
     offset="0"
     stop-color="#dadada"
     id="stop1456" />
  <stop
     offset=".5"
     stop-color="#fff"
     id="stop1458" />
  <stop
     offset="1"
     stop-color="#fff"
     id="stop1460" />
</linearGradient>
<linearGradient
   id="c"
   gradientUnits="userSpaceOnUse"
   x1="15"
   x2="15"
   y1="18"
   y2="1">
  <stop
     offset="0"
     stop-color="#4f4f4f"
     id="stop1463" />
  <stop
     offset=".88235295"
     stop-color="#4f4f4f"
     stop-opacity=".498039"
     id="stop1465" />
  <stop
     offset="1"
     stop-color="#b7b7b7"
     id="stop1467" />
</linearGradient>




     /&amp;amp;gt;
 <path
   d="M 1,0 C 0.446,0 0,0.446 0,1 v 10 l 3.1992188,3 H 15 c 0.554,0 1,-0.446 1,-1 V 1 C 16,0.446 15.554,0 15,0 Z"
   id="path1470"
   inkscape:connector-curvature="0"
   style="fill:#3e3e3e"
   sodipodi:nodetypes="ssccsssss" />
<g
   fill="#fff"
   id="g1476">
  <path
     d="M 2.280908,1 H 13.719092 C 13.874715,1 14,1.125285 14,1.280908 V 6.719092 C 14,6.874715 13.874715,7 13.719092,7 H 2.280908 C 2.125285,7 2,6.874715 2,6.719092 V 1.280908 C 2,1.125285 2.125285,1 2.280908,1 Z"
     id="rect1472"
     inkscape:connector-curvature="0"
     sodipodi:nodetypes="sssssssss" />
  <path
     d="m 4.5,9 c -0.554,0 -1,0.446 -1,1 v 2 c 0,0.554 0.4469243,1.031989 1,1 h 1 v -3 h 2 v 3 H 12 c 0.554,0 1,-0.446 1,-1 V 10 C 13,9.446 12.554,9 12,9 Z"
     id="path1474"
     inkscape:connector-curvature="0"
     style="fill:url(#b)"
     sodipodi:nodetypes="ssscccccsssss" />
</g>
<path
   d="m 5.5,10 h 2 v 1 h -2 z"
   id="path1478"
   inkscape:connector-curvature="0"
   sodipodi:nodetypes="ccccc" />
<path
   d="m 14,1 h 1 v 15.428571 h -1 z"
   transform="matrix(1,0,0,0.77777778,0.5,0.222222)"
   id="path1480"
   inkscape:connector-curvature="0"
   style="fill:url(#c);filter:url(#a)"
   sodipodi:nodetypes="ccccc" />
<path
   d="m 14,1 h 1.237288 V 11.928571 H 14 Z"
   transform="matrix(1,0,0,0.77777778,-13.237288,0.222222)"
   id="path1482"
   inkscape:connector-curvature="0"
   style="fill:url(#c);filter:url(#a)"
   sodipodi:nodetypes="ccccc" />
<path
   d="m 4,5 h 8 V 6 H 4 Z"
   id="path1484"
   inkscape:connector-curvature="0"
   style="fill:#bababa"
   sodipodi:nodetypes="ccccc" />
<path
   d="m 4,3 h 8 V 4 H 4 Z"
   id="path1486"
   inkscape:connector-curvature="0"
   style="fill:#bababa"
   sodipodi:nodetypes="ccccc" />
<path
   d="m 4,1 h 8 V 2 H 4 Z"
   id="path1488"
   inkscape:connector-curvature="0"
   style="fill:#0a84ff"
   sodipodi:nodetypes="ccccc" />
<g
   transform="translate(-2.563243,-7)"
   id="g12">
  <path
     style="fill:#b3b3b3"
     inkscape:connector-curvature="0"
     d="m 2.563243,22 h 16.000002 v 1 H 2.563243 Z"
     id="path8" />
  <path
     style="fill:#808080"
     inkscape:connector-curvature="0"
     d="m 9.5632427,20 v 2 h -2 v 1 h 6.0000003 v -1 h -2 v -2 z"
     id="path10" />
</g>
</svg>
